X:19
T:L'Allegrante
C:Dale, c.1800
S:Colin Hume's website,  colinhume.com  - chords can also be printed below the stave.
N:Bass line from original book; chords implied by this.
Q:1/4=84
M:2/4
R:Reel
L:1/8
B:Dale's Selection of the most favorite Country Dances, Reels &c. (London, c. 1800)
%%staves {1 2}
K:C
P:A
V:1
%%MIDI program 46     Orchestral Harp
|: G | e2 dc | {c}B2 AG | G2 A^F | G2 z^f/g/ |\
G2 AB | c2 de | fdcB | c2 z :|
V:2 bass octave=-2
%%MIDI gchord zczc
%%MIDI chordprog 24   Acoustic Guitar (nylon)
%%MIDI program 46     Orchestral Harp
|: z | "C"c4 | "G"g4 | "G"g2 "D"^fd | "G"gG Bd |\
"G"g2 z2 | "C/E"e2 "Dm/F"f2 | "G"g2 G2 | "C"[cc']2 z :|
P:B
V:1
|: g | d2 dd | egec |[Bd]2[Bd][Bd] |[ce]2 zg |\
c'ba^g | a2 c'a | c2 Td3/c/4d/4 | c2 z :|
V:2
|: z | "G"g2 Gg | "C"c'2 c2 | "G"g2 Gg | "C"c'2 z2 |\
"C"c2 "/E"e2 | "F"f2 "/A"a2 | "C/G"g2 "G"G2 | "C"[cc']2 z :|
P:C
V:1
|: [eg] |[ce][ce][ce][df] | [eg]2 [fa][ce] |[df][df]gd |[ce]2z!p![eg] |\
[ce][ce][ce][df] |[eg]2 ae | !f!fdcB | c2z :|
V:2
|: z | "C"c2 c2 | "C"c2 e2 | "G/B"B2 b2 | "C"[cc']2 z2 |\
[I:MIDI=chordvol 50] !p!"C"c2 c2 | "C"c2 z2 | [I:MIDI=chordvol 64] "G"!f! g2 G2 | "C"[Cc]2 z :|

